X:5020
T:The Two-Day Hangover
M:4/4
R:Reel
L:1/8
C:Aidan Crossey
K:D
|:AD(3DDD A2D2|AD(3DDD EE(3GFE|AD(3DDD BD(3DDD|=cD(3DDD ^cD(3DDD|
AD(3DDD A2D2|AD(3DDD EE(3GFE|AD(3DDD BD(3DDD|FD(3DDD D4:||
|:dD(3DDD cD(3DDD|BD(3DDD AD(3DDD|d2(3ccc B2(3AAA|G2(3FFF E2(3AAA|
d2c2 B2A2|G2F2 E2A2|GABG FAdB|AFGE D4:||
